public/assets/community.svg

<svg width="24" height="24" viewBox="0 0 24 24" fill="none" xmlns="http://www.w3.org/2000/svg">
<path fill-rule="evenodd" clip-rule="evenodd" d="M12 1.25C9.37665 1.25 7.25 3.37665 7.25 6C7.25 8.62335 9.37665 10.75 12 10.75C14.6234 10.75 16.75 8.62335 16.75 6C16.75 3.37665 14.6234 1.25 12 1.25ZM8.75 6C8.75 4.20507 10.2051 2.75 12 2.75C13.7949 2.75 15.25 4.20507 15.25 6C15.25 7.79493 13.7949 9.25 12 9.25C10.2051 9.25 8.75 7.79493 8.75 6Z" fill="#EFEFEF"/>
<path d="M18 3.25C17.5858 3.25 17.25 3.58579 17.25 4C17.25 4.41421 17.5858 4.75 18 4.75C19.3765 4.75 20.25 5.65573 20.25 6.5C20.25 7.34427 19.3765 8.25 18 8.25C17.5858 8.25 17.25 8.58579 17.25 9C17.25 9.41421 17.5858 9.75 18 9.75C19.9372 9.75 21.75 8.41715 21.75 6.5C21.75 4.58285 19.9372 3.25 18 3.25Z" fill="#EFEFEF"/>
<path d="M6.75 4C6.75 3.58579 6.41421 3.25 6 3.25C4.06278 3.25 2.25 4.58285 2.25 6.5C2.25 8.41715 4.06278 9.75 6 9.75C6.41421 9.75 6.75 9.41421 6.75 9C6.75 8.58579 6.41421 8.25 6 8.25C4.62351 8.25 3.75 7.34427 3.75 6.5C3.75 5.65573 4.62351 4.75 6 4.75C6.41421 4.75 6.75 4.41421 6.75 4Z" fill="#EFEFEF"/>
<path fill-rule="evenodd" clip-rule="evenodd" d="M12 12.25C10.2157 12.25 8.56645 12.7308 7.34133 13.5475C6.12146 14.3608 5.25 15.5666 5.25 17C5.25 18.4334 6.12146 19.6392 7.34133 20.4525C8.56645 21.2692 10.2157 21.75 12 21.75C13.7843 21.75 15.4335 21.2692 16.6587 20.4525C17.8785 19.6392 18.75 18.4334 18.75 17C18.75 15.5666 17.8785 14.3608 16.6587 13.5475C15.4335 12.7308 13.7843 12.25 12 12.25ZM6.75 17C6.75 16.2242 7.22169 15.4301 8.17338 14.7956C9.11984 14.1646 10.4706 13.75 12 13.75C13.5294 13.75 14.8802 14.1646 15.8266 14.7956C16.7783 15.4301 17.25 16.2242 17.25 17C17.25 17.7758 16.7783 18.5699 15.8266 19.2044C14.8802 19.8354 13.5294 20.25 12 20.25C10.4706 20.25 9.11984 19.8354 8.17338 19.2044C7.22169 18.5699 6.75 17.7758 6.75 17Z" fill="#EFEFEF"/>
<path d="M19.2674 13.8393C19.3561 13.4347 19.7561 13.1787 20.1607 13.2674C21.1225 13.4783 21.9893 13.8593 22.6328 14.3859C23.2758 14.912 23.75 15.6352 23.75 16.5C23.75 17.3648 23.2758 18.088 22.6328 18.6141C21.9893 19.1407 21.1225 19.5217 20.1607 19.7326C19.7561 19.8213 19.3561 19.5653 19.2674 19.1607C19.1787 18.7561 19.4347 18.3561 19.8393 18.2674C20.6317 18.0936 21.2649 17.7952 21.6829 17.4532C22.1014 17.1108 22.25 16.7763 22.25 16.5C22.25 16.2237 22.1014 15.8892 21.6829 15.5468C21.2649 15.2048 20.6317 14.9064 19.8393 14.7326C19.4347 14.6439 19.1787 14.2439 19.2674 13.8393Z" fill="#EFEFEF"/>
<path d="M3.83935 13.2674C4.24395 13.1787 4.64387 13.4347 4.73259 13.8393C4.82132 14.2439 4.56525 14.6439 4.16065 14.7326C3.36829 14.9064 2.73505 15.2048 2.31712 15.5468C1.89863 15.8892 1.75 16.2237 1.75 16.5C1.75 16.7763 1.89863 17.1108 2.31712 17.4532C2.73505 17.7952 3.36829 18.0936 4.16065 18.2674C4.56525 18.3561 4.82132 18.7561 4.73259 19.1607C4.64387 19.5653 4.24395 19.8213 3.83935 19.7326C2.87746 19.5217 2.0107 19.1407 1.36719 18.6141C0.724248 18.088 0.25 17.3648 0.25 16.5C0.25 15.6352 0.724248 14.912 1.36719 14.3859C2.0107 13.8593 2.87746 13.4783 3.83935 13.2674Z" fill="#EFEFEF"/>
</svg>

<svg width="24" height="24" viewBox="0 0 24 24" fill="none" xmlns="http://www.w3.org/2000/svg"><path fill-rule="evenodd" clip-rule="evenodd" d="M12 1.25a4.75 4.75 0 1 0 0 9.5 4.75 4.75 0 0 0 0-9.5ZM8.75 6a3.25 3.25 0 1 1 6.5 0 3.25 3.25 0 0 1-6.5 0Z" fill="#EFEFEF"/><path d="M18 3.25a.75.75 0 0 0 0 1.5c1.377 0 2.25.906 2.25 1.75S19.377 8.25 18 8.25a.75.75 0 0 0 0 1.5c1.937 0 3.75-1.333 3.75-3.25S19.937 3.25 18 3.25ZM6.75 4A.75.75 0 0 0 6 3.25c-1.937 0-3.75 1.333-3.75 3.25S4.063 9.75 6 9.75a.75.75 0 0 0 0-1.5c-1.376 0-2.25-.906-2.25-1.75S4.624 4.75 6 4.75A.75.75 0 0 0 6.75 4Z" fill="#EFEFEF"/><path fill-rule="evenodd" clip-rule="evenodd" d="M12 12.25c-1.784 0-3.434.48-4.659 1.297-1.22.814-2.091 2.02-2.091 3.453 0 1.433.871 2.64 2.091 3.453 1.225.816 2.875 1.297 4.659 1.297 1.784 0 3.434-.48 4.659-1.297 1.22-.814 2.091-2.02 2.091-3.453 0-1.433-.872-2.64-2.091-3.453-1.225-.816-2.875-1.297-4.659-1.297ZM6.75 17c0-.776.472-1.57 1.423-2.204.947-.631 2.298-1.046 3.827-1.046 1.53 0 2.88.415 3.827 1.046.951.634 1.423 1.428 1.423 2.204 0 .776-.472 1.57-1.423 2.204-.947.631-2.298 1.046-3.827 1.046-1.53 0-2.88-.415-3.827-1.046C7.222 18.57 6.75 17.776 6.75 17Z" fill="#EFEFEF"/><path d="M19.267 13.84a.75.75 0 0 1 .894-.573c.961.211 1.828.592 2.472 1.119.643.526 1.117 1.25 1.117 2.114 0 .865-.474 1.588-1.117 2.114-.644.527-1.51.908-2.472 1.119a.75.75 0 0 1-.322-1.466c.793-.173 1.426-.472 1.844-.814.418-.342.567-.677.567-.953 0-.276-.149-.61-.567-.953-.418-.342-1.051-.64-1.844-.814a.75.75 0 0 1-.572-.894ZM3.84 13.267a.75.75 0 1 1 .32 1.466c-.792.173-1.425.472-1.843.814-.418.342-.567.677-.567.953 0 .276.149.61.567.953.418.342 1.051.64 1.844.814a.75.75 0 0 1-.322 1.466c-.962-.211-1.828-.592-2.472-1.119C.724 18.088.25 17.364.25 16.5c0-.865.474-1.588 1.117-2.114.644-.527 1.51-.908 2.472-1.119Z" fill="#EFEFEF"/></svg>
